X:73
T:Painters Sett Of Quadrilles No.3. Le4.073, The
B:L.Leadley MS#4 c1850
Z:Village Music Project, 2016 Steve Mansfield
M:6/8
L:1/8
Q:3/8=90
K:D
a | {c'}d'2a f2a | {=c'}b2g e2g | fga agf | fee e2a |
{c'}d'2a f2a | b2g e2g | fga gec | (e3 d2) H||
c/d/ | e>fe e2e | a2e c2e | dcd Bed | dcc c2 c/d/ |
e>fe e2e | a2e c2A | Bdc BA^G | A2A A2 !segno! ||
F | Bcd def | edc B2f | gfe dcB | ^ABc F2F |
Bcd def | edc c2b | agf edc | B2B B2 !D.C.! |]

